X: 305675
M: 2/4
L: 1/16
K: A
E2 |\
e2 |\
^defe =dBed | cAce aecA | (3(Bcd) B2 (3(gab) g2 | agab aecA |\
^defe =dBed | cAce aecA | BFdB AGFG | A2c2"^D.C."A2 |]


